X: 6
T: The Walls Of Liscarrol
R: jig
M: 6/8
L: 1/8
K: Ador
age edB| dBA A2B| dBB gBB |def gab |
age edB |dBA A2B |dBB gBB |ABA A2a :|
aea bge | aea bge | dBB gBB | def gab |1aea bge |
aea bge | dBB gBB |ABA A3 :|2 age edB |
dBA A2B |dBB gBB |ABA A2a ||


Tune 232	Setting 29032

